coreui/free/cil-center-focus.svg

<svg xmlns="http://www.w3.org/2000/svg" viewBox="0 0 512 512">
  <path fill="var(--ci-primary-color, currentColor)" d="M64,496H184V464H64a16.019,16.019,0,0,1-16-16V328H16V448A48.054,48.054,0,0,0,64,496Z" class="ci-primary"/>
  <path fill="var(--ci-primary-color, currentColor)" d="M48,64A16.019,16.019,0,0,1,64,48H184V16H64A48.054,48.054,0,0,0,16,64V184H48Z" class="ci-primary"/>
  <path fill="var(--ci-primary-color, currentColor)" d="M448,16H328V48H448a16.019,16.019,0,0,1,16,16V184h32V64A48.054,48.054,0,0,0,448,16Z" class="ci-primary"/>
  <path fill="var(--ci-primary-color, currentColor)" d="M464,448a16.019,16.019,0,0,1-16,16H328v32H448a48.054,48.054,0,0,0,48-48V328H464Z" class="ci-primary"/>
  <path fill="var(--ci-primary-color, currentColor)" d="M400,256c0-79.4-64.6-144-144-144S112,176.6,112,256s64.6,144,144,144S400,335.4,400,256ZM256,368A112,112,0,1,1,368,256,112.127,112.127,0,0,1,256,368Z" class="ci-primary"/>
</svg>

<svg viewBox="0 0 512 512" xmlns="http://www.w3.org/2000/svg"><g><path d="M64 496h120v-32H64v0c-8.84-.02-15.99-7.17-16-16V328H16v120 0c.02 26.49 21.5 47.97 48 48Z"/><path d="M48 64v0c.01-8.84 7.16-15.99 16-16h120V16H64v0c-26.5.02-47.98 21.5-48 48v120h32Z"/><path d="M448 16H328v32h120v0c8.83.01 15.98 7.16 16 16v120h32V64v0c-.03-26.5-21.51-47.98-48-48Z"/><path d="M464 448v0c-.02 8.83-7.17 15.98-16 16H328v32h120v0c26.49-.03 47.97-21.51 48-48V328h-32Z"/><path d="M400 256c0-79.4-64.6-144-144-144s-144 64.6-144 144 64.6 144 144 144 144-64.6 144-144ZM256 368v0c-61.86 0-112-50.15-112-112 0-61.86 50.14-112 112-112 61.85 0 112 50.14 112 112v0c-.07 61.82-50.18 111.93-112 112Z"/></g></svg>
